X:109
T:The green groves of Erin
R:Reel
O:Ireland
B:Krassen O'Neill's p136
B:O'Neill's 1429
B:Kerr's Second p25
S:O'Neill's 1429
Z:Transcription, minor arr., chords:Mike Long
M:C|
L:1/8
K:G
"Am"A2 (3(cBA) eA (3(cBA)|"G"BGBd gedB|\
"Am"A2 (3(cBA) eAcA|"Em"BGEF "G"GABG|\
"Am"A2 (3(cBA) eA (3(cBA)|
"G"BGBd gedB|\
"Am"A2 (3(cBA) eAcA|"G"BGED "Am"EAA2|]\
"Am"eaag eaag|"Em"efgf efgf|\
"Am"eaag eaag|
"Em"(3(efg) fa "G"gedB|\
"Am"eaag ~a2ag|"Em"efgf "G"~g2ge|\
"G"dega (3(bag) ag|(3(efg) fa gedB|]
